Newaita-dark/devices/32/media-flash-ms.svg

<svg height="32pt" viewBox="0 0 32 32" width="32pt" xmlns="http://www.w3.org/2000/svg" xmlns:xlink="http://www.w3.org/1999/xlink"><linearGradient id="a"><stop offset="0" stop-opacity=".27451"/><stop offset="1" stop-opacity="0"/></linearGradient><linearGradient id="b" gradientUnits="userSpaceOnUse" x1="15.876521" x2="15.876521" xlink:href="#a" y1="27.982205" y2="29.30524887502"/><linearGradient id="c"><stop offset="0" stop-opacity=".313725"/><stop offset=".222222" stop-opacity=".27451"/><stop offset="1" stop-opacity="0"/></linearGradient><radialGradient id="d" cx="450.90894" cy="189.57936" gradientTransform="matrix(.00000017 -.0781325 -.140638 -.0000001 50.476844 63.543604)" gradientUnits="userSpaceOnUse" r="21.166656" xlink:href="#c"/><radialGradient id="e" cx="450.90894" cy="189.57936" gradientTransform="matrix(-.00000017 .0781325 .140638 .0000001 -18.723812 -7.579209)" gradientUnits="userSpaceOnUse" r="21.166656" xlink:href="#c"/><radialGradient id="f" cx="450.90894" cy="189.57936" gradientTransform="matrix(-.00000017 -.0781325 .140638 -.0000001 -18.723812 63.543604)" gradientUnits="userSpaceOnUse" r="21.166656" xlink:href="#c"/><radialGradient id="g" cx="450.90894" cy="189.57936" gradientTransform="matrix(.00000017 .0781325 -.140638 .0000001 50.476842 -7.57921)" gradientUnits="userSpaceOnUse" r="21.166656" xlink:href="#c"/><linearGradient id="h" gradientUnits="userSpaceOnUse" x1="30.760754" x2="30.760754" xlink:href="#a" y1="27.982205" y2="29.30524887502"/><radialGradient id="i" cx="450.90894" cy="189.57936" gradientTransform="matrix(-.00000017 .0781325 .140638 .0000001 -3.839579 -7.579209)" gradientUnits="userSpaceOnUse" r="21.166656" xlink:href="#c"/><radialGradient id="j" cx="450.90894" cy="189.57936" gradientTransform="matrix(-.00000017 -.0781325 .140638 -.0000001 -3.839579 63.543604)" gradientUnits="userSpaceOnUse" r="21.166656" xlink:href="#c"/><radialGradient id="k" cx="450.90894" cy="189.57936" gradientTransform="matrix(.00000017 -.0781325 -.140638 -.0000001 35.592609 63.543604)" gradientUnits="userSpaceOnUse" r="21.166656" xlink:href="#c"/><radialGradient id="l" cx="450.90894" cy="189.57936" gradientTransform="matrix(.00000017 .0781325 -.140638 .0000001 35.592607 -7.57921)" gradientUnits="userSpaceOnUse" r="21.166656" xlink:href="#c"/><linearGradient id="m" gradientUnits="userSpaceOnUse" x1="15.876524" x2="15.876524" y1="30.68002175004" y2=".250017"><stop offset="0" stop-color="#78909c"/><stop offset="1" stop-color="#90a4ae"/></linearGradient><linearGradient id="n" gradientUnits="userSpaceOnUse" x1="15.876524" x2="15.876524" xlink:href="#a" y1=".250017" y2="32.003065"/><path d="m7.609375 28.007812h1.652344v1.347657h-1.652344zm0 0" fill="url(#b)"/><path d="m24.144531 27.980469h2.648438v-1.320313h-2.648438zm0 0" fill="url(#d)"/><path d="m7.609375 27.980469h-2.648437v1.324219h2.648437zm0 0" fill="url(#e)"/><path d="m7.609375 27.980469h-2.648437v-1.320313h2.648437zm0 0" fill="url(#f)"/><path d="m24.144531 27.980469h2.648438v1.324219h-2.648438zm0 0" fill="url(#g)"/><path d="m22.492188 28.007812h1.652343v1.347657h-1.652343zm0 0" fill="url(#h)"/><path d="m22.492188 27.980469h-2.648438v1.324219h2.648438zm0 0" fill="url(#i)"/><path d="m22.492188 27.980469h-2.648438v-1.320313h2.648438zm0 0" fill="url(#j)"/><path d="m9.261719 27.980469h2.644531v-1.320313h-2.644531zm0 0" fill="url(#k)"/><path d="m9.261719 27.980469h2.644531v1.324219h-2.644531zm0 0" fill="url(#l)"/><path d="m11.90625 2.902344c-.347656 0-.683594.140625-.929688.386718l-5.292968 5.292969c-.246094.246094-.386719.578125-.386719.929688v17.199219c0 .726562.589844 1.316406 1.320313 1.316406h3.96875v-.65625c0-.730469.589843-1.320313 1.320312-1.320313h7.9375c.734375 0 1.324219.589844 1.324219 1.320313v.65625h3.96875c.726562 0 1.316406-.589844 1.316406-1.316406v-22.492188c0-.726562-.589844-1.316406-1.316406-1.316406zm0 0" fill="url(#m)"/><path d="m11.90625 25.558594c-.730469 0-1.320312.589844-1.320312 1.324218v.488282c0-.730469.589843-1.320313 1.320312-1.320313h7.9375c.734375 0 1.324219.589844 1.324219 1.320313v-.488282c0-.734374-.589844-1.324218-1.324219-1.324218zm-6.609375.664062v.488282c0 .726562.589844 1.316406 1.320313 1.316406h3.96875v-.488282h-3.96875c-.730469 0-1.320313-.589843-1.320313-1.316406zm21.15625 0c0 .726563-.589844 1.316406-1.316406 1.316406h-3.96875v.488282h3.96875c.726562 0 1.316406-.589844 1.316406-1.316406zm0 0" fill-opacity=".235294"/><path d="m12.570312 5.546875c-.351562 0-.683593.140625-.933593.386719l-3.304688 3.308594c-.25.246093-.386719.582031-.386719.929687v12.570313c0 .726562.589844 1.316406 1.316407 1.316406h13.230469c.726562 0 1.316406-.589844 1.316406-1.316406v-15.875c0-.730469-.589844-1.320313-1.316406-1.320313zm0 0" fill="url(#n)"/><path d="m7.945312 22.742188v.496093c0 .726563.589844 1.316407 1.316407 1.316407h13.230469c.726562 0 1.316406-.589844 1.316406-1.316407v-.496093c0 .726562-.589844 1.316406-1.316406 1.316406h-13.230469c-.726563 0-1.316407-.589844-1.316407-1.316406zm0 0" fill="#fff" fill-opacity=".392157"/><path d="m12.570312 5.546875c-.351562 0-.683593.140625-.933593.386719l-3.304688 3.308594c-.25.246093-.386719.582031-.386719.929687v.492187c0-.351562.136719-.683593.386719-.933593l3.304688-3.304688c.25-.25.582031-.386719.933593-.386719h9.921876c.726562 0 1.316406.589844 1.316406 1.316407v-.488281c0-.730469-.589844-1.320313-1.316406-1.320313zm0 0" fill-opacity=".235294"/><path d="m201.105795-126.258474c-5.624463 0-10.936455 2.249785-14.936073 6.186909l-52.869951 52.932445c-3.999619 3.937124-6.18691 9.311611-6.18691 14.87358v201.105795c0 11.62389 9.436599 21.060489 21.060489 21.060489h211.667287c11.62389 0 21.060489-9.436599 21.060489-21.060489v-253.975747c0-11.686384-9.436599-21.122982-21.060489-21.122982zm0 0" fill="none" stroke="#212121" stroke-linecap="round" stroke-linejoin="round" stroke-width="3" transform="matrix(.062506 0 0 .062506 0 13.438783)"/><path d="m11.90625 2.902344c-.347656 0-.683594.140625-.929688.386718l-5.292968 5.292969c-.246094.246094-.386719.578125-.386719.929688v.328125c0-.351563.140625-.6875.386719-.933594l5.292968-5.292969c.246094-.246093.582032-.382812.929688-.382812h13.230469c.726562 0 1.316406.589843 1.316406 1.316406v-.328125c0-.726562-.589844-1.316406-1.316406-1.316406zm0 0" fill="#fff" fill-opacity=".392157"/><path d="m719.931259 175.495054c-21.021615 0-41.334636 8.503125-56.215105 23.383594l-320.048181 320.048181c-14.880469 14.880469-23.383594 34.957293-23.383594 56.215105v1039.979441c0 43.932813 35.665886 79.598698 79.834897 79.598698h239.977086v-39.68125c0-44.169011 35.665886-79.834897 79.834897-79.834897h479.954173c44.405209 0 80.071095 35.665886 80.071095 79.834897v39.68125h239.977086c43.932813 0 79.598699-35.665885 79.598699-79.598698v-1360.027622c0-43.932813-35.665886-79.598699-79.598699-79.598699zm0 0" fill="none" stroke="#212121" stroke-linecap="round" stroke-linejoin="round" stroke-width="11.338583" transform="scale(.016538)"/></svg>

<?xml version="1.0" encoding="UTF-8"?>
<svg xmlns="http://www.w3.org/2000/svg" xmlns:xlink="http://www.w3.org/1999/xlink" width="32pt" height="32pt" viewBox="0 0 32 32" version="1.1">
<defs>
<linearGradient id="linear0" gradientUnits="userSpaceOnUse" x1="254" y1="233.5" x2="254" y2="254.66667" gradientTransform="matrix(0.062506,0,0,0.062506,-0.00000250024,13.387054)">
<stop offset="0" style="stop-color:rgb(0%,0%,0%);stop-opacity:0.27451;"/>
<stop offset="1" style="stop-color:rgb(0%,0%,0%);stop-opacity:0;"/>
</linearGradient>
<radialGradient id="radial0" gradientUnits="userSpaceOnUse" cx="450.90894" cy="189.57936" fx="450.90894" fy="189.57936" r="21.166656" gradientTransform="matrix(0.00000017417,-0.0781325,-0.140638,-0.000000101539,50.476844,63.543604)">
<stop offset="0" style="stop-color:rgb(0%,0%,0%);stop-opacity:0.313725;"/>
<stop offset="0.222222" style="stop-color:rgb(0%,0%,0%);stop-opacity:0.27451;"/>
<stop offset="1" style="stop-color:rgb(0%,0%,0%);stop-opacity:0;"/>
</radialGradient>
<radialGradient id="radial1" gradientUnits="userSpaceOnUse" cx="450.90894" cy="189.57936" fx="450.90894" fy="189.57936" r="21.166656" gradientTransform="matrix(-0.00000017417,0.0781325,0.140638,0.000000101539,-18.723812,-7.579209)">
<stop offset="0" style="stop-color:rgb(0%,0%,0%);stop-opacity:0.313725;"/>
<stop offset="0.222222" style="stop-color:rgb(0%,0%,0%);stop-opacity:0.27451;"/>
<stop offset="1" style="stop-color:rgb(0%,0%,0%);stop-opacity:0;"/>
</radialGradient>
<radialGradient id="radial2" gradientUnits="userSpaceOnUse" cx="450.90894" cy="189.57936" fx="450.90894" fy="189.57936" r="21.166656" gradientTransform="matrix(-0.00000017417,-0.0781325,0.140638,-0.000000101539,-18.723812,63.543604)">
<stop offset="0" style="stop-color:rgb(0%,0%,0%);stop-opacity:0.313725;"/>
<stop offset="0.222222" style="stop-color:rgb(0%,0%,0%);stop-opacity:0.27451;"/>
<stop offset="1" style="stop-color:rgb(0%,0%,0%);stop-opacity:0;"/>
</radialGradient>
<radialGradient id="radial3" gradientUnits="userSpaceOnUse" cx="450.90894" cy="189.57936" fx="450.90894" fy="189.57936" r="21.166656" gradientTransform="matrix(0.00000017417,0.0781325,-0.140638,0.000000101539,50.476842,-7.57921)">
<stop offset="0" style="stop-color:rgb(0%,0%,0%);stop-opacity:0.313725;"/>
<stop offset="0.222222" style="stop-color:rgb(0%,0%,0%);stop-opacity:0.27451;"/>
<stop offset="1" style="stop-color:rgb(0%,0%,0%);stop-opacity:0;"/>
</radialGradient>
<linearGradient id="linear1" gradientUnits="userSpaceOnUse" x1="254" y1="233.5" x2="254" y2="254.66667" gradientTransform="matrix(0.062506,0,0,0.062506,14.88423,13.387054)">
<stop offset="0" style="stop-color:rgb(0%,0%,0%);stop-opacity:0.27451;"/>
<stop offset="1" style="stop-color:rgb(0%,0%,0%);stop-opacity:0;"/>
</linearGradient>
<radialGradient id="radial4" gradientUnits="userSpaceOnUse" cx="450.90894" cy="189.57936" fx="450.90894" fy="189.57936" r="21.166656" gradientTransform="matrix(-0.00000017417,0.0781325,0.140638,0.000000101539,-3.839579,-7.579209)">
<stop offset="0" style="stop-color:rgb(0%,0%,0%);stop-opacity:0.313725;"/>
<stop offset="0.222222" style="stop-color:rgb(0%,0%,0%);stop-opacity:0.27451;"/>
<stop offset="1" style="stop-color:rgb(0%,0%,0%);stop-opacity:0;"/>
</radialGradient>
<radialGradient id="radial5" gradientUnits="userSpaceOnUse" cx="450.90894" cy="189.57936" fx="450.90894" fy="189.57936" r="21.166656" gradientTransform="matrix(-0.00000017417,-0.0781325,0.140638,-0.000000101539,-3.839579,63.543604)">
<stop offset="0" style="stop-color:rgb(0%,0%,0%);stop-opacity:0.313725;"/>
<stop offset="0.222222" style="stop-color:rgb(0%,0%,0%);stop-opacity:0.27451;"/>
<stop offset="1" style="stop-color:rgb(0%,0%,0%);stop-opacity:0;"/>
</radialGradient>
<radialGradient id="radial6" gradientUnits="userSpaceOnUse" cx="450.90894" cy="189.57936" fx="450.90894" fy="189.57936" r="21.166656" gradientTransform="matrix(0.00000017417,-0.0781325,-0.140638,-0.000000101539,35.592609,63.543604)">
<stop offset="0" style="stop-color:rgb(0%,0%,0%);stop-opacity:0.313725;"/>
<stop offset="0.222222" style="stop-color:rgb(0%,0%,0%);stop-opacity:0.27451;"/>
<stop offset="1" style="stop-color:rgb(0%,0%,0%);stop-opacity:0;"/>
</radialGradient>
<radialGradient id="radial7" gradientUnits="userSpaceOnUse" cx="450.90894" cy="189.57936" fx="450.90894" fy="189.57936" r="21.166656" gradientTransform="matrix(0.00000017417,0.0781325,-0.140638,0.000000101539,35.592607,-7.57921)">
<stop offset="0" style="stop-color:rgb(0%,0%,0%);stop-opacity:0.313725;"/>
<stop offset="0.222222" style="stop-color:rgb(0%,0%,0%);stop-opacity:0.27451;"/>
<stop offset="1" style="stop-color:rgb(0%,0%,0%);stop-opacity:0;"/>
</radialGradient>
<linearGradient id="linear2" gradientUnits="userSpaceOnUse" x1="254" y1="275.83334" x2="254" y2="-211" gradientTransform="matrix(0.062506,0,0,0.062506,0,13.438783)">
<stop offset="0" style="stop-color:rgb(47.058824%,56.470588%,61.176471%);stop-opacity:1;"/>
<stop offset="1" style="stop-color:rgb(56.470588%,64.313725%,68.235294%);stop-opacity:1;"/>
</linearGradient>
<linearGradient id="linear3" gradientUnits="userSpaceOnUse" x1="254" y1="-211" x2="254" y2="297" gradientTransform="matrix(0.062506,0,0,0.062506,0,13.438783)">
<stop offset="0" style="stop-color:rgb(0%,0%,0%);stop-opacity:0.27451;"/>
<stop offset="1" style="stop-color:rgb(0%,0%,0%);stop-opacity:0;"/>
</linearGradient>
</defs>
<g id="surface1">
<path style=" stroke:none;fill-rule:nonzero;fill:url(#linear0);" d="M 7.609375 28.007812 L 9.261719 28.007812 L 9.261719 29.355469 L 7.609375 29.355469 Z M 7.609375 28.007812 "/>
<path style=" stroke:none;fill-rule:nonzero;fill:url(#radial0);" d="M 24.144531 27.980469 L 26.792969 27.980469 L 26.792969 26.660156 L 24.144531 26.660156 Z M 24.144531 27.980469 "/>
<path style=" stroke:none;fill-rule:nonzero;fill:url(#radial1);" d="M 7.609375 27.980469 L 4.960938 27.980469 L 4.960938 29.304688 L 7.609375 29.304688 Z M 7.609375 27.980469 "/>
<path style=" stroke:none;fill-rule:nonzero;fill:url(#radial2);" d="M 7.609375 27.980469 L 4.960938 27.980469 L 4.960938 26.660156 L 7.609375 26.660156 Z M 7.609375 27.980469 "/>
<path style=" stroke:none;fill-rule:nonzero;fill:url(#radial3);" d="M 24.144531 27.980469 L 26.792969 27.980469 L 26.792969 29.304688 L 24.144531 29.304688 Z M 24.144531 27.980469 "/>
<path style=" stroke:none;fill-rule:nonzero;fill:url(#linear1);" d="M 22.492188 28.007812 L 24.144531 28.007812 L 24.144531 29.355469 L 22.492188 29.355469 Z M 22.492188 28.007812 "/>
<path style=" stroke:none;fill-rule:nonzero;fill:url(#radial4);" d="M 22.492188 27.980469 L 19.84375 27.980469 L 19.84375 29.304688 L 22.492188 29.304688 Z M 22.492188 27.980469 "/>
<path style=" stroke:none;fill-rule:nonzero;fill:url(#radial5);" d="M 22.492188 27.980469 L 19.84375 27.980469 L 19.84375 26.660156 L 22.492188 26.660156 Z M 22.492188 27.980469 "/>
<path style=" stroke:none;fill-rule:nonzero;fill:url(#radial6);" d="M 9.261719 27.980469 L 11.90625 27.980469 L 11.90625 26.660156 L 9.261719 26.660156 Z M 9.261719 27.980469 "/>
<path style=" stroke:none;fill-rule:nonzero;fill:url(#radial7);" d="M 9.261719 27.980469 L 11.90625 27.980469 L 11.90625 29.304688 L 9.261719 29.304688 Z M 9.261719 27.980469 "/>
<path style=" stroke:none;fill-rule:nonzero;fill:url(#linear2);" d="M 11.90625 2.902344 C 11.558594 2.902344 11.222656 3.042969 10.976562 3.289062 L 5.683594 8.582031 C 5.4375 8.828125 5.296875 9.160156 5.296875 9.511719 L 5.296875 26.710938 C 5.296875 27.4375 5.886719 28.027344 6.617188 28.027344 L 10.585938 28.027344 L 10.585938 27.371094 C 10.585938 26.640625 11.175781 26.050781 11.90625 26.050781 L 19.84375 26.050781 C 20.578125 26.050781 21.167969 26.640625 21.167969 27.371094 L 21.167969 28.027344 L 25.136719 28.027344 C 25.863281 28.027344 26.453125 27.4375 26.453125 26.710938 L 26.453125 4.21875 C 26.453125 3.492188 25.863281 2.902344 25.136719 2.902344 Z M 11.90625 2.902344 "/>
<path style=" stroke:none;fill-rule:nonzero;fill:rgb(0%,0%,0%);fill-opacity:0.235294;" d="M 11.90625 25.558594 C 11.175781 25.558594 10.585938 26.148438 10.585938 26.882812 L 10.585938 27.371094 C 10.585938 26.640625 11.175781 26.050781 11.90625 26.050781 L 19.84375 26.050781 C 20.578125 26.050781 21.167969 26.640625 21.167969 27.371094 L 21.167969 26.882812 C 21.167969 26.148438 20.578125 25.558594 19.84375 25.558594 Z M 5.296875 26.222656 L 5.296875 26.710938 C 5.296875 27.4375 5.886719 28.027344 6.617188 28.027344 L 10.585938 28.027344 L 10.585938 27.539062 L 6.617188 27.539062 C 5.886719 27.539062 5.296875 26.949219 5.296875 26.222656 Z M 26.453125 26.222656 C 26.453125 26.949219 25.863281 27.539062 25.136719 27.539062 L 21.167969 27.539062 L 21.167969 28.027344 L 25.136719 28.027344 C 25.863281 28.027344 26.453125 27.4375 26.453125 26.710938 Z M 26.453125 26.222656 "/>
<path style=" stroke:none;fill-rule:nonzero;fill:url(#linear3);" d="M 12.570312 5.546875 C 12.21875 5.546875 11.886719 5.6875 11.636719 5.933594 L 8.332031 9.242188 C 8.082031 9.488281 7.945312 9.824219 7.945312 10.171875 L 7.945312 22.742188 C 7.945312 23.46875 8.535156 24.058594 9.261719 24.058594 L 22.492188 24.058594 C 23.21875 24.058594 23.808594 23.46875 23.808594 22.742188 L 23.808594 6.867188 C 23.808594 6.136719 23.21875 5.546875 22.492188 5.546875 Z M 12.570312 5.546875 "/>
<path style=" stroke:none;fill-rule:nonzero;fill:rgb(100%,100%,100%);fill-opacity:0.392157;" d="M 7.945312 22.742188 L 7.945312 23.238281 C 7.945312 23.964844 8.535156 24.554688 9.261719 24.554688 L 22.492188 24.554688 C 23.21875 24.554688 23.808594 23.964844 23.808594 23.238281 L 23.808594 22.742188 C 23.808594 23.46875 23.21875 24.058594 22.492188 24.058594 L 9.261719 24.058594 C 8.535156 24.058594 7.945312 23.46875 7.945312 22.742188 Z M 7.945312 22.742188 "/>
<path style=" stroke:none;fill-rule:nonzero;fill:rgb(0%,0%,0%);fill-opacity:0.235294;" d="M 12.570312 5.546875 C 12.21875 5.546875 11.886719 5.6875 11.636719 5.933594 L 8.332031 9.242188 C 8.082031 9.488281 7.945312 9.824219 7.945312 10.171875 L 7.945312 10.664062 C 7.945312 10.3125 8.082031 9.980469 8.332031 9.730469 L 11.636719 6.425781 C 11.886719 6.175781 12.21875 6.039062 12.570312 6.039062 L 22.492188 6.039062 C 23.21875 6.039062 23.808594 6.628906 23.808594 7.355469 L 23.808594 6.867188 C 23.808594 6.136719 23.21875 5.546875 22.492188 5.546875 Z M 12.570312 5.546875 "/>
<path style="fill:none;stroke-width:3;stroke-linecap:round;stroke-linejoin:round;stroke:rgb(12.941176%,12.941176%,12.941176%);stroke-opacity:1;stroke-miterlimit:4;" d="M 201.105795 -126.258474 C 195.481332 -126.258474 190.16934 -124.008689 186.169722 -120.071565 L 133.299771 -67.13912 C 129.300152 -63.201996 127.112861 -57.827509 127.112861 -52.26554 L 127.112861 148.840255 C 127.112861 160.464145 136.54946 169.900744 148.17335 169.900744 L 359.840637 169.900744 C 371.464527 169.900744 380.901126 160.464145 380.901126 148.840255 L 380.901126 -105.135492 C 380.901126 -116.821876 371.464527 -126.258474 359.840637 -126.258474 Z M 201.105795 -126.258474 " transform="matrix(0.062506,0,0,0.062506,0,13.438783)"/>
<path style=" stroke:none;fill-rule:nonzero;fill:rgb(100%,100%,100%);fill-opacity:0.392157;" d="M 11.90625 2.902344 C 11.558594 2.902344 11.222656 3.042969 10.976562 3.289062 L 5.683594 8.582031 C 5.4375 8.828125 5.296875 9.160156 5.296875 9.511719 L 5.296875 9.839844 C 5.296875 9.488281 5.4375 9.152344 5.683594 8.90625 L 10.976562 3.613281 C 11.222656 3.367188 11.558594 3.230469 11.90625 3.230469 L 25.136719 3.230469 C 25.863281 3.230469 26.453125 3.820312 26.453125 4.546875 L 26.453125 4.21875 C 26.453125 3.492188 25.863281 2.902344 25.136719 2.902344 Z M 11.90625 2.902344 "/>
<path style="fill:none;stroke-width:11.338583;stroke-linecap:round;stroke-linejoin:round;stroke:rgb(12.941176%,12.941176%,12.941176%);stroke-opacity:1;stroke-miterlimit:4;" d="M 719.931259 175.495054 C 698.909644 175.495054 678.596623 183.998179 663.716154 198.878648 L 343.667973 518.926829 C 328.787504 533.807298 320.284379 553.884122 320.284379 575.141934 L 320.284379 1615.121375 C 320.284379 1659.054188 355.950265 1694.720073 400.119276 1694.720073 L 640.096362 1694.720073 L 640.096362 1655.038823 C 640.096362 1610.869812 675.762248 1575.203926 719.931259 1575.203926 L 1199.885432 1575.203926 C 1244.290641 1575.203926 1279.956527 1610.869812 1279.956527 1655.038823 L 1279.956527 1694.720073 L 1519.933613 1694.720073 C 1563.866426 1694.720073 1599.532312 1659.054188 1599.532312 1615.121375 L 1599.532312 255.093753 C 1599.532312 211.16094 1563.866426 175.495054 1519.933613 175.495054 Z M 719.931259 175.495054 " transform="matrix(0.016538,0,0,0.016538,0,0)"/>
</g>
</svg>
